public/operators/withbg/1xbet.svg

<svg width="150" height="120" viewBox="0 0 150 120" fill="none" xmlns="http://www.w3.org/2000/svg">
<rect width="150" height="120" fill="#1A5685"/>
<path d="M84.4261 54.8832C85.4985 50.5747 82.8833 47.0093 76.4769 47.0093H62.5917L57.3894 68.0817L60.4092 73.2652H70.2869C76.7591 73.2652 81.7732 70.2454 83.062 64.9961C83.7111 62.3056 82.9585 60.4242 81.2652 59.4834V59.4176C82.871 58.3774 84.0056 56.7497 84.4261 54.8832ZM75.9595 64.8268C75.6961 65.9274 74.9529 67.0563 71.8767 67.0563H65.5738L66.6744 62.5408H72.9491C75.9877 62.5314 76.2135 63.6885 75.9219 64.8268H75.9595ZM77.2201 55.0243C76.9943 55.871 76.3452 56.9058 73.6923 56.9058H68.0479L68.9887 53.237H74.6331C77.3141 53.2181 77.4458 54.0836 77.2201 55.0243Z" fill="#15A0FF"/>
<path d="M93.1655 63.0958H105.809L107.248 56.887H94.6895L95.6678 53.2181H108.104L109.544 47.0093H89.1297L82.6575 73.2558H105.781L107.295 67.0469H92.2341L93.1655 63.0958Z" fill="#15A0FF"/>
<path d="M111.313 47.0093L109.864 53.2181H117.418L112.46 73.2558H120.391L125.358 53.2181H133.448L135 47.0093H111.313Z" fill="#15A0FF"/>
<path d="M23.2973 73.2558H15.301L18.7629 59.2388L19.5626 57.1222L17.4459 59.2388L15.0941 61.6189L15 54.6198L23.2973 47.0093H29.7601L23.2973 73.2558Z" fill="white"/>
<path d="M52.1685 62.3809L49.6191 58.0629L61.9897 47.0093H50.4657L45.7621 51.5248L29.8072 66.1532L22.1497 73.2558H33.0528L41.2466 65.9463L44.0029 70.6499C44.9436 71.8353 46.2701 73.2746 51.8957 73.2746H58.4808L52.1779 62.3715L52.1685 62.3809Z" fill="white"/>
<path d="M44.8778 50.0761V50.0197C44.172 49.035 43.2301 48.2433 42.1387 47.7173C41.0473 47.1913 39.8413 46.9479 38.6313 47.0093H30.1177L36.4676 57.8089L44.8778 50.0761Z" fill="white"/>
</svg>

<svg xmlns="http://www.w3.org/2000/svg" width="150" height="120" fill="none"><path fill="#1A5685" d="M0 0h150v120H0z"/><path fill="#15A0FF" d="M84.43 54.88c1.07-4.3-1.55-7.87-7.95-7.87H62.59l-5.2 21.07 3.02 5.19h9.88c6.47 0 11.48-3.02 12.77-8.27.65-2.7-.1-4.58-1.8-5.52v-.06a7.32 7.32 0 0 0 3.17-4.54Zm-8.47 9.95c-.26 1.1-1 2.23-4.08 2.23h-6.3l1.1-4.52h6.27c3.04 0 3.26 1.15 2.97 2.29h.04Zm1.26-9.8c-.23.84-.87 1.88-3.53 1.88h-5.64l.94-3.67h5.64c2.68-.02 2.82.84 2.59 1.78ZM93.17 63.1h12.64l1.44-6.21H94.69l.98-3.67h12.43l1.44-6.21H89.13l-6.47 26.25h23.12l1.52-6.21H92.22l.94-3.95ZM111.31 47l-1.45 6.22h7.56l-4.96 20.04h7.93l4.97-20.04h8.09L135 47h-23.69Z"/><path fill="#fff" d="M23.3 73.26h-8l3.46-14.02.8-2.12-2.11 2.12-2.36 2.38-.09-7 8.3-7.61h6.46L23.3 73.26Z"/><path fill="#fff" d="m52.17 62.38-2.55-4.32 12.37-11.05H50.47l-4.7 4.51L29.8 66.15l-7.66 7.1h10.9l8.2-7.3 2.75 4.7c.94 1.19 2.27 2.62 7.9 2.62h6.58l-6.3-10.9-.01.01ZM44.88 50.08v-.06a7.23 7.23 0 0 0-6.25-3.01h-8.51l6.35 10.8 8.4-7.73Z"/></svg>
